img/svg/16/net/ultrabrowser.svg

<svg xmlns="http://www.w3.org/2000/svg" viewBox="0 0 16 16" enable-background="new 0 0 16 16"><path fill="#ccc" d="M9 5h3v2h-3zM1 1v14h14v-14h-14zm12 6h-1v1h1v3h-1v1h-3v-1h-1v1h-4v-1h-1v-7h1v6h1v1h2v-1h1v-6h4v1h1v2zM9 8h3v3h-3z"/></svg>

<svg xmlns="http://www.w3.org/2000/svg" viewBox="0 0 16 16"><path fill="#ccc" d="M9 5h3v2H9zM1 1v14h14V1H1zm12 6h-1v1h1v3h-1v1H9v-1H8v1H4v-1H3V4h1v6h1v1h2v-1h1V4h4v1h1v2zM9 8h3v3H9z"/></svg>
